X: 17
T: Tick Dance Song (f)
C: Anon.
%%abc-version 2.0
%%abcx-abcm2ps-target-version 5.9.1 (29 Sep 2008)
%%abc-creator hum2abc beta
%%abcx-conversion-date 2020/08/10 20:56:09
%%abc-copyright Electronic Copyright 2000 David Huron
%%abc-edited-by David Huron
%%abcx-initial-encoding-date August 27, 2000
%%humdrum-veritas 3202001069
%%humdrum-veritas-data 2604354786
%%linebreak <none>
%%barnumbers 0
L: 1/8
M: 2/4
Q: 1/4=80
K: G clef=bass
A, G, E, E, | 
G, G, G, E,/ z/ | 
G,< G, G, E,/ z/ | 
A,2G,3/ F,/ | 
E, E, E, E, | 
E, G, E, !tenuto!E, | 
E, E, E, z | 
G,< E,E,2 | 
A, G, E, E, | 
G,2E,2 | 
F,< E, G, E,/ z/ | 
A,2G,3/ F,/ | 
E, E, E, E, | 
E, G, E, !tenuto!E, | 
E, E, E, z | 
G,< E,E,2 | 
A, G, E, E, | 
G,2z2 | 
E,< E, A, E,/ z/ | 
A,2G,3/ F,/ | 
E, E, E, E, | 
E, G, E, !tenuto!E, | 
E, E, E, z | 
G,< E,E,2 | 
A, G, E, E, | 
G,2G,3/ E,/ | 
G,< G, G, E,/ z/ | 
A,2G,3/ F,/ | 
E, E, E, E, | 
E, G, E, !tenuto!E, | 
E, E, E, z | 
G,< E,E,2 | 
A, G, E, E, | 
A,2G,3/ E,/ | 
E, E,E,2 | 
E, G, E, !tenuto!E, | 
E, E, E, z/ G,/ | 
E, E, E, z |]  


